actions/16/tools-wizard.svg

<svg xmlns="http://www.w3.org/2000/svg" viewBox="0 0 16 16">
  <defs id="defs3051">
    <style type="text/css" id="current-color-scheme">
      .ColorScheme-Text {
        color:#808080;
      }
      </style>
  </defs>
 <path style="fill:currentColor;fill-opacity:1;stroke:none" 
     d="m3.5 2l-.531.969-.969.531.969.531.531.969.531-.969.969-.531-.969-.531zm7.631 0l-9.125 9.125 2.875 2.875 9.125-9.125zm0 1.438l1.438 1.439-2.781 2.779-1.438-1.438z"
     class="ColorScheme-Text"
     />
</svg>

<svg xmlns="http://www.w3.org/2000/svg" version="1.1" viewBox="0 0 16 16">
 <defs>
  <style id="current-color-scheme" type="text/css">
   .ColorScheme-Text { color:#808080; }
  </style>
 </defs>
 <path class="ColorScheme-Text" d="M 3.5,2 2.969,2.969 2,3.5 2.969,4.031 3.5,5 4.031,4.031 5,3.5 4.031,2.969 Z M 11.131,2 2.006,11.125 4.881,14 14.006,4.875 Z M 11.131,3.438 12.569,4.877 9.788,7.656 8.35,6.218 Z" style="color:#808080;fill:currentColor"/>
</svg>
